resources/svg/catalog.svg

<svg viewBox="0 0 24 24"><path fill="none" stroke="currentColor" stroke-width="2" d="M5 6L1 4.5v13.943L12 23l11-4.557V4l-4 2M5 16V2l7 3l7-3v14l-7 3l-7-3zm6.95-11v14"/></svg>

<svg xmlns="http://www.w3.org/2000/svg" viewBox="0 0 24 24" fill="currentColor"><path fill="none" stroke="currentColor" stroke-width="2" d="M5,6 L1,4.5 L1,18.443038 L12,23 L23,18.443038 L23,4 L19,6 M5,16 L5,2 L12,5 L19,2 L19,16 L12,19 L5,16 Z M11.95,5 L11.95,19"/></svg>
